X:234
T:Elixir
M:4/4
L:1/8
R:reel
Z:id:hn-reel-284
K:Bm
FBBA Bcde|f2~f2 edBA|eAfA gaag|edcB ABBA|
~B3A Bcde|f2df edBA|Bcdf edBA|1 FBBA B2BA:|2 FBBA B2Bc||
dF~F2 DFAd|BA (3Bcd e2fa|bf~f2 dfed|BA (3Bcd egfe|
fdBF B2de|f2df edBA|Bcdf edBA|FBBA B2Bc||
|:dB~B2 eBfB|g2fg effe|~f3d efde|fB~B2 A2dc|
BF~F2 Bcdc|BcdB e2de|fB~B2 ABcd|edBA B2Bc:|
dF~F2 DFAd|BA (3Bcd e2fa|bf~f2 dfed|BA (3Bcd egfe|
fdBF B2de|f2df edBA|Bcdf edBA|FBBA B2BA||
